X:1792
T:Job of Journey Work, The
T:Greim Obairaonlae
C:"collected by F.O'Neill"
S:1792 O'Neill's Music of Ireland
B:O'Neill's 1792
Z:Transcribed by Robert Thorpe (thorpe@skep.com)
Z:ABCMUS 1.0
M:C
L:1/8
K:D
f-e|dcBA FGAB|cABG A2 f-e|d2 c-A BGAF|GBAF DEFG|
ABAF GFEF|D2 DE F2 G2|A2 d2 cdef|d2 dd d2:|
|:d-e|f2e-f gfef|dcAG A2 d-e|f2e-f gfef|d3 c A2 f-g|
agfa gfef|dcde f2ec|dcAG FGAB|cABG A2 f-e|
d2 cA BGAF|GBAF DEFG|ABAF GFEF|D2 DE F2 G2|
A2 d2 cdef|d2 dd d2:|


